static/logos/amazon-wordmark-color.svg

<svg width="100" height="31" viewBox="0 0 100 31" fill="none" xmlns="http://www.w3.org/2000/svg">
<g clip-path="url(#clip0_1_3579)">
<path d="M62.0208 23.5795C56.2167 27.8576 47.8038 30.1402 40.5605 30.1402C30.4043 30.1402 21.261 26.3838 14.3437 20.136C13.8002 19.6448 14.2871 18.9752 14.9393 19.3577C22.4044 23.7012 31.6346 26.3141 41.1691 26.3141C47.5994 26.3141 54.6732 24.9838 61.1774 22.2229C62.16 21.8055 62.9817 22.8664 62.0208 23.5795Z" fill="#FF9900"/>
<path d="M64.4358 20.8186C63.6966 19.8708 59.5315 20.3708 57.662 20.5925C57.0925 20.6622 57.0054 20.1665 57.5185 19.8099C60.8358 17.4753 66.2792 18.1491 66.9139 18.9317C67.5487 19.7187 66.7487 25.1751 63.6315 27.7794C63.1532 28.1794 62.6966 27.9663 62.9097 27.4358C63.6097 25.688 65.1792 21.7708 64.4358 20.8186Z" fill="#FF9900"/>
<path d="M57.797 3.32767V1.05815C57.797 0.714682 58.0579 0.484253 58.371 0.484253H68.5317C68.8577 0.484253 69.1186 0.719031 69.1186 1.05815V3.00159C69.1143 3.32767 68.8403 3.75374 68.3534 4.42764L63.0882 11.9449C65.0448 11.8971 67.11 12.1884 68.8838 13.1883C69.2838 13.4144 69.3925 13.7448 69.4229 14.0709V16.4926C69.4229 16.823 69.0577 17.2099 68.6751 17.0099C65.5491 15.3709 61.397 15.1926 57.9405 17.0273C57.5884 17.2187 57.2188 16.8361 57.2188 16.5056V14.2057C57.2188 13.8361 57.2232 13.2057 57.5927 12.6449L63.6925 3.89723H58.3841C58.0579 3.89723 57.797 3.66679 57.797 3.32767Z" fill="#221F1F"/>
<path d="M20.7294 17.4883H17.6382C17.3425 17.4665 17.1077 17.2448 17.0859 16.9622V1.09732C17.0859 0.77994 17.3511 0.527769 17.6816 0.527769H20.5642C20.864 0.540804 21.1032 0.771242 21.1251 1.05819V3.13207H21.1815C21.9337 1.12776 23.3466 0.192993 25.2509 0.192993C27.1858 0.192993 28.3944 1.12776 29.2639 3.13207C30.0118 1.12776 31.7118 0.192993 33.5334 0.192993C34.8291 0.192993 36.2465 0.727764 37.1116 1.92774C38.0899 3.2625 37.8899 5.20159 37.8899 6.90156L37.8854 16.9145C37.8854 17.2317 37.6203 17.4883 37.2899 17.4883H34.203C33.8942 17.4665 33.6465 17.2188 33.6465 16.9145V8.50587C33.6465 7.83631 33.7073 6.16678 33.5596 5.53202C33.3291 4.46681 32.6378 4.16683 31.7422 4.16683C30.9944 4.16683 30.2118 4.66681 29.8944 5.4668C29.577 6.26678 29.6075 7.60588 29.6075 8.50587V16.9145C29.6075 17.2317 29.3422 17.4883 29.0118 17.4883H25.9249C25.6118 17.4665 25.3684 17.2188 25.3684 16.9145L25.364 8.50587C25.364 6.73633 25.6553 4.13204 23.4597 4.13204C21.238 4.13204 21.3249 6.67112 21.3249 8.50587V16.9145C21.3249 17.2317 21.0597 17.4883 20.7294 17.4883Z" fill="#221F1F"/>
<path d="M77.8626 0.192993C82.4495 0.192993 84.9321 4.13204 84.9321 9.14063C84.9321 13.9797 82.1887 17.8188 77.8626 17.8188C73.3585 17.8188 70.9062 13.8797 70.9062 8.97107C70.9062 4.03204 73.3888 0.192993 77.8626 0.192993ZM77.8888 3.43205C75.6106 3.43205 75.4671 6.53633 75.4671 8.47109C75.4671 10.4102 75.4366 14.5492 77.8626 14.5492C80.2583 14.5492 80.3713 11.2102 80.3713 9.17542C80.3713 7.83631 80.3149 6.23635 79.9104 4.96681C79.5626 3.86248 78.8714 3.43205 77.8888 3.43205Z" fill="#221F1F"/>
<path d="M90.8813 17.4883H87.803C87.4944 17.4665 87.2465 17.2188 87.2465 16.9145L87.2422 1.04515C87.2684 0.753851 87.5248 0.527769 87.8379 0.527769H90.703C90.9725 0.540804 91.1943 0.723418 91.2551 0.971239V3.39728H91.3117C92.1768 1.22776 93.3899 0.192993 95.5246 0.192993C96.9115 0.192993 98.2637 0.692983 99.1332 2.06252C99.942 3.33205 99.942 5.4668 99.942 7.00154V16.9883C99.9072 17.2665 99.6506 17.4883 99.3463 17.4883H96.2463C95.9637 17.4665 95.7289 17.2579 95.6986 16.9883V8.37109C95.6986 6.63633 95.8986 4.09726 93.7637 4.09726C93.0117 4.09726 92.3203 4.6016 91.9768 5.3668C91.5422 6.33635 91.4856 7.30154 91.4856 8.37109V16.9145C91.4813 17.2317 91.2117 17.4883 90.8813 17.4883Z" fill="#221F1F"/>
<path d="M9.17101 9.91013V9.24057C6.93626 9.24057 4.57545 9.71883 4.57545 12.3536C4.57545 13.6883 5.26674 14.5926 6.45368 14.5926C7.32321 14.5926 8.10145 14.0579 8.59276 13.1883C9.20144 12.1188 9.17101 11.1145 9.17101 9.91013ZM12.2883 17.4447C12.084 17.6273 11.7883 17.6404 11.5579 17.5187C10.5319 16.6665 10.3492 16.2709 9.78404 15.4578C8.08842 17.1882 6.88845 17.7056 4.68848 17.7056C2.08853 17.7056 0.0625 16.1013 0.0625 12.8883C0.0625 10.3797 1.42334 8.67102 3.35809 7.83626C5.03631 7.09714 7.37974 6.96671 9.17101 6.76236V6.36238C9.17101 5.6276 9.22752 4.75807 8.79711 4.12329C8.41885 3.55374 7.69712 3.31896 7.06235 3.31896C5.88412 3.31896 4.83197 3.92329 4.57545 5.17545C4.52328 5.45371 4.31893 5.72761 4.04067 5.74066L1.04074 5.41892C0.788571 5.3624 0.510315 5.15805 0.579879 4.7711C1.27117 1.1364 4.55371 0.0407715 7.49278 0.0407715C8.99709 0.0407715 10.9623 0.440763 12.1492 1.57987C13.6535 2.98419 13.51 4.85807 13.51 6.89716V11.7144C13.51 13.1622 14.11 13.797 14.6752 14.5796C14.8752 14.8579 14.9187 15.1926 14.6665 15.4013C14.0361 15.9274 12.9144 16.9056 12.297 17.4535L12.2883 17.4447Z" fill="#221F1F"/>
<path d="M49.2413 9.91013V9.24057C47.0066 9.24057 44.6457 9.71883 44.6457 12.3536C44.6457 13.6883 45.3371 14.5926 46.524 14.5926C47.3935 14.5926 48.1718 14.0579 48.663 13.1883C49.2718 12.1188 49.2413 11.1145 49.2413 9.91013ZM52.3587 17.4447C52.1544 17.6273 51.8587 17.6404 51.6282 17.5187C50.6021 16.6665 50.4195 16.2709 49.8544 15.4578C48.1587 17.1882 46.9587 17.7056 44.7588 17.7056C42.1588 17.7056 40.1328 16.1013 40.1328 12.8883C40.1328 10.3797 41.4937 8.67102 43.4283 7.83626C45.1066 7.09714 47.4501 6.96671 49.2413 6.76236V6.36238C49.2413 5.6276 49.2978 4.75807 48.8675 4.12329C48.4892 3.55374 47.7675 3.31896 47.1326 3.31896C45.9544 3.31896 44.9023 3.92329 44.6457 5.17545C44.5935 5.45371 44.3892 5.72761 44.1109 5.74066L41.1111 5.41892C40.8588 5.3624 40.5806 5.15805 40.6502 4.7711C41.3414 1.1364 44.624 0.0407715 47.5632 0.0407715C49.0675 0.0407715 51.0326 0.440763 52.2195 1.57987C53.7239 2.98419 53.5804 4.85807 53.5804 6.89716V11.7144C53.5804 13.1622 54.1804 13.797 54.7456 14.5796C54.9456 14.8579 54.989 15.1926 54.7368 15.4013C54.1064 15.9274 52.9847 16.9056 52.3673 17.4535L52.3587 17.4447Z" fill="#221F1F"/>
</g>
<defs>
<clipPath id="clip0_1_3579">
<rect width="100" height="30.1824" fill="white"/>
</clipPath>
</defs>
</svg>

<svg xmlns="http://www.w3.org/2000/svg" width="206.452" height="64" fill="none" viewBox="0 0 100 31"><g clip-path="url(#a)"><path fill="#F90" d="M62.02 23.58c-5.803 4.278-14.216 6.56-21.46 6.56-10.156 0-19.299-3.756-26.216-10.004-.544-.491-.057-1.16.595-.778 7.465 4.343 16.696 6.956 26.23 6.956 6.43 0 13.504-1.33 20.008-4.091.983-.418 1.805.643.844 1.357Z"/><path fill="#F90" d="M64.436 20.819c-.74-.948-4.905-.448-6.774-.226-.57.07-.657-.427-.143-.783 3.317-2.335 8.76-1.66 9.395-.878.635.787-.165 6.243-3.282 8.847-.479.4-.935.187-.722-.343.7-1.748 2.27-5.665 1.526-6.617Z"/><path fill="#221F1F" d="M57.797 3.328v-2.27a.56.56 0 0 1 .574-.574h10.16c.327 0 .588.235.588.574v1.944c-.005.326-.279.752-.766 1.426l-5.265 7.517c1.957-.048 4.022.243 5.796 1.243.4.226.508.557.539.883v2.422c0 .33-.365.717-.748.517-3.126-1.64-7.278-1.817-10.734.017-.353.192-.722-.19-.722-.521v-2.3c0-.37.004-1 .374-1.561l6.1-8.748h-5.309c-.326 0-.587-.23-.587-.57ZM20.73 17.488h-3.092a.584.584 0 0 1-.552-.526V1.097a.58.58 0 0 1 .596-.57h2.882c.3.014.54.244.561.531v2.074h.056c.753-2.004 2.166-2.939 4.07-2.939 1.935 0 3.143.935 4.013 2.94.748-2.005 2.448-2.94 4.27-2.94 1.295 0 2.712.535 3.578 1.735.978 1.335.778 3.274.778 4.974l-.005 10.012a.584.584 0 0 1-.595.574h-3.087a.587.587 0 0 1-.556-.573v-8.41c0-.669.06-2.338-.087-2.973-.23-1.065-.922-1.365-1.818-1.365-.748 0-1.53.5-1.848 1.3-.317.8-.286 2.139-.286 3.039v8.409a.584.584 0 0 1-.596.573h-3.087a.584.584 0 0 1-.557-.573l-.004-8.41c0-1.769.291-4.373-1.904-4.373-2.222 0-2.135 2.54-2.135 4.374v8.409a.584.584 0 0 1-.596.573ZM77.863.193c4.587 0 7.07 3.939 7.07 8.948 0 4.839-2.744 8.678-7.07 8.678-4.504 0-6.957-3.94-6.957-8.848 0-4.939 2.483-8.778 6.957-8.778Zm.026 3.239c-2.278 0-2.422 3.104-2.422 5.04 0 1.938-.03 6.077 2.396 6.077 2.395 0 2.508-3.339 2.508-5.374 0-1.339-.056-2.939-.46-4.208-.348-1.105-1.04-1.535-2.022-1.535ZM90.881 17.488h-3.078a.588.588 0 0 1-.556-.573l-.005-15.87a.585.585 0 0 1 .596-.517h2.865c.27.013.491.195.552.443v2.426h.057c.865-2.17 2.078-3.204 4.213-3.204 1.386 0 2.739.5 3.608 1.87.809 1.269.809 3.404.809 4.939v9.986a.594.594 0 0 1-.596.5h-3.1c-.282-.021-.517-.23-.547-.5V8.371c0-1.735.2-4.274-1.935-4.274-.752 0-1.444.505-1.787 1.27-.435.97-.491 1.935-.491 3.004v8.543a.594.594 0 0 1-.605.574ZM9.171 9.91v-.67c-2.235 0-4.596.479-4.596 3.114 0 1.334.692 2.239 1.879 2.239.87 0 1.647-.535 2.139-1.405.608-1.07.578-2.074.578-3.278Zm3.117 7.535a.646.646 0 0 1-.73.074c-1.026-.852-1.209-1.248-1.774-2.061-1.696 1.73-2.896 2.248-5.096 2.248-2.6 0-4.625-1.605-4.625-4.818 0-2.508 1.36-4.217 3.295-5.052 1.678-.739 4.022-.87 5.813-1.074v-.4c0-.734.057-1.604-.374-2.239-.378-.57-1.1-.804-1.735-.804-1.178 0-2.23.604-2.487 1.856-.052.279-.256.553-.534.566l-3-.322C.789 5.362.51 5.159.58 4.77 1.27 1.136 4.554.041 7.493.041c1.504 0 3.47.4 4.656 1.539 1.505 1.404 1.361 3.278 1.361 5.317v4.817c0 1.448.6 2.083 1.165 2.866.2.278.244.613-.009.821-.63.526-1.752 1.505-2.369 2.052l-.009-.008ZM49.241 9.91v-.67c-2.234 0-4.595.479-4.595 3.114 0 1.334.691 2.239 1.878 2.239.87 0 1.648-.535 2.139-1.405.609-1.07.578-2.074.578-3.278Zm3.118 7.535a.646.646 0 0 1-.73.074c-1.027-.852-1.21-1.248-1.775-2.061-1.695 1.73-2.895 2.248-5.095 2.248-2.6 0-4.626-1.605-4.626-4.818 0-2.508 1.36-4.217 3.295-5.052 1.679-.739 4.022-.87 5.813-1.074v-.4c0-.734.057-1.604-.373-2.239-.379-.57-1.1-.804-1.735-.804-1.179 0-2.23.604-2.487 1.856-.053.279-.257.553-.535.566l-3-.322c-.252-.057-.53-.26-.46-.648.69-3.635 3.973-4.73 6.912-4.73 1.505 0 3.47.4 4.656 1.539 1.505 1.404 1.361 3.278 1.361 5.317v4.817c0 1.448.6 2.083 1.166 2.866.2.278.243.613-.01.821-.63.526-1.751 1.505-2.369 2.052l-.008-.008Z"/></g><defs><clipPath id="a"><path fill="#fff" d="M0 0h100v30.182H0z"/></clipPath></defs></svg>
